src/categories-icons-sprite/categories/svg-cat-child-furniture.svg

<svg width="31" height="28" viewBox="0 0 31 28" fill="none" xmlns="http://www.w3.org/2000/svg">
<path class="p-F7B239" d="M30.5221 20.34C30.0072 19.8243 29.1827 19.8049 28.6354 20.2867C28.2029 20.6674 27.7559 21.028 27.2968 21.3675L26.2128 18.9723L25.2961 16.9474C24.9807 17.1407 24.2096 16.1313 23.8702 16.2853C23.4231 16.4881 23.3996 17.839 22.9171 17.9667L23.9664 20.2851L25.0965 22.7813C22.1791 24.394 18.8867 25.2517 15.4633 25.2517C12.0399 25.2517 8.74741 24.394 5.83006 22.7813L6.96014 20.2851L8.0094 17.9667C7.60144 17.8587 8.00529 16.6089 7.62222 16.447C7.2084 16.2721 6.00988 17.1807 5.63043 16.9482L4.71369 18.9731L3.6297 21.3675C3.16973 21.0288 2.72353 20.6683 2.29026 20.2867C2.02672 20.0547 1.69855 19.9391 1.37195 19.9391C1.02034 19.9391 0.670309 20.0724 0.403569 20.34C-0.154978 20.8986 -0.131542 21.8145 0.460167 22.3375C4.61106 25.9994 9.8848 28 15.4633 28C21.0409 28 26.3147 25.9994 30.4656 22.3375C30.7719 22.0667 30.9263 21.6916 30.9263 21.3141C30.9263 20.9625 30.7921 20.61 30.5221 20.34Z" fill="#A1D1FD"/>
<path class="p-E09B2D" d="M25.2963 16.9472C23.8703 16.2852 22.4153 16.2043 22.9173 17.9666L23.9666 20.285C24.4306 20.0982 24.8751 19.8735 25.2963 19.6148C25.6156 19.4192 25.922 19.205 26.213 18.9722L25.2963 16.9472ZM4.71387 18.9729C5.00489 19.2049 5.31125 19.42 5.63054 19.6156C6.05167 19.8743 6.4963 20.0982 6.96032 20.2849L8.00958 17.9665C8.34989 15.9618 6.7332 15.5576 5.6306 16.948L4.71387 18.9729Z" fill="#76B7E2"/>
<path class="p-F7B239" d="M3.53968 1.97729H2.32715V6.26803H3.53968V1.97729Z" fill="#B9DFFC"/>
<path class="p-F7B239" d="M28.5993 1.97729H27.3867V6.26803H28.5993V1.97729Z" fill="#B9DFFC"/>
<path class="p-F7B239" d="M23.5866 1.97729H22.374V6.26803H23.5866V1.97729Z" fill="#B9DFFC"/>
<path class="p-F7B239" d="M8.55139 1.97729H7.33887V6.26803H8.55139V1.97729Z" fill="#B9DFFC"/>
<path class="p-F7B239" d="M13.5641 1.97729H12.3516V6.26803H13.5641V1.97729Z" fill="#B9DFFC"/>
<path class="p-F7B239" d="M18.5748 1.97729H17.3623V6.26803H18.5748V1.97729Z" fill="#B9DFFC"/>
<path class="p-E09B2D" d="M3.53968 1.97729H2.32715V3.79935H3.53968V1.97729Z" fill="#A1D1FD"/>
<path class="p-E09B2D" d="M8.55139 1.97729H7.33887V3.79935H8.55139V1.97729Z" fill="#A1D1FD"/>
<path class="p-E09B2D" d="M13.5641 1.97729H12.3516V3.79935H13.5641V1.97729Z" fill="#A1D1FD"/>
<path class="p-E09B2D" d="M18.5748 1.97729H17.3623V3.79935H18.5748V1.97729Z" fill="#A1D1FD"/>
<path class="p-E09B2D" d="M23.5866 1.97729H22.374V3.79935H23.5866V1.97729Z" fill="#A1D1FD"/>
<path class="p-E09B2D" d="M28.5993 1.97729H27.3867V3.79935H28.5993V1.97729Z" fill="#A1D1FD"/>
<path class="p-2BA5F7" d="M5.63076 16.948C3.044 15.3645 1.31738 12.5118 1.31738 9.25571V6.87112C1.31738 6.11209 1.93271 5.49683 2.69167 5.49683H2.93407H7.94589H12.9577H17.9695H22.9814H27.9932H28.2356C28.9946 5.49683 29.6099 6.11215 29.6099 6.87112V9.25571C29.6099 12.5118 27.884 15.3637 25.2965 16.9473C24.5657 17.3951 23.7663 17.7419 22.9175 17.9666C22.177 18.1638 21.3994 18.2689 20.5967 18.2689H10.3298C9.52785 18.2689 8.75022 18.1638 8.0098 17.9666C7.16101 17.7418 6.36152 17.3959 5.63076 16.948Z" fill="#5FBEFF"/>
<path class="p-2197D8" d="M12.9731 16.948C10.3863 15.3645 8.65972 12.5118 8.65972 9.25571V5.49683H2.93407H2.69167C1.93265 5.49683 1.31738 6.11215 1.31738 6.87112V9.25571C1.31738 12.5118 3.044 15.3645 5.63076 16.948C6.36152 17.3959 7.16096 17.7419 8.00974 17.9666C8.75022 18.1638 9.52785 18.2689 10.3297 18.2689H16.8362C16.0343 18.2689 16.0925 18.1638 15.3521 17.9666C14.5033 17.7418 13.7039 17.3959 12.9731 16.948Z" fill="#4D98CB"/>
<path class="p-F95428" d="M18.2826 9.95576C18.9964 10.6688 18.9964 11.8255 18.2826 12.5385L15.4631 15.3588L12.6427 12.5385C12.2862 12.182 12.1084 11.7148 12.1084 11.2475C12.1084 10.7795 12.2862 10.3123 12.6427 9.95576C13.3557 9.24277 14.5124 9.24277 15.2254 9.95576L15.4631 10.1926L15.7 9.95576C16.0565 9.59927 16.5237 9.42065 16.9909 9.42065C17.4589 9.42065 17.9262 9.59927 18.2826 9.95576Z" fill="#4D98CB"/>
<path class="p-F7B239" d="M29.128 0C29.8862 0 30.5022 0.615145 30.5022 1.37423C30.5022 1.75417 30.3486 2.09689 30.0996 2.34587C29.8506 2.59485 29.5071 2.74846 29.128 2.74846H27.9931H22.9812H17.9694H12.9576H7.94577H2.93395H1.79904C1.04001 2.74846 0.424805 2.13332 0.424805 1.37423C0.424805 0.994295 0.57841 0.651568 0.827391 0.402586C1.07637 0.153605 1.4191 0 1.79904 0H29.128Z" fill="#B9DFFC"/>
<path class="p-E09B2D" d="M7.12627 1.37423C7.12627 0.994295 7.27988 0.651568 7.52886 0.402586C7.77784 0.153605 8.12057 0 8.5005 0H1.79904C1.4191 0 1.07637 0.153605 0.827391 0.402586C0.57841 0.651568 0.424805 0.994295 0.424805 1.37423C0.424805 2.13325 1.03995 2.74846 1.79904 2.74846H2.93395H8.50056C7.74142 2.74846 7.12627 2.13332 7.12627 1.37423Z" fill="#A1D1FD"/>
</svg>

<svg width="31" height="28" fill="none" xmlns="http://www.w3.org/2000/svg"><path class="p-F7B239" d="M30.522 20.34a1.377 1.377 0 00-1.887-.053c-.432.38-.88.741-1.338 1.08l-1.084-2.395-.917-2.025c-.315.194-1.086-.816-1.426-.662-.447.203-.47 1.554-.953 1.682l1.05 2.318 1.13 2.496a19.848 19.848 0 01-9.634 2.47c-3.423 0-6.716-.857-9.633-2.47l1.13-2.496 1.05-2.318c-.409-.108-.005-1.358-.388-1.52-.414-.175-1.612.734-1.992.501l-.916 2.025-1.084 2.395c-.46-.34-.906-.7-1.34-1.081a1.387 1.387 0 00-.918-.348 1.372 1.372 0 00-.912 2.398A22.548 22.548 0 0015.463 28c5.578 0 10.852-2 15.003-5.663a1.373 1.373 0 00.056-1.997z" fill="#A1D1FD"/><path class="p-E09B2D" d="M25.296 16.947c-1.426-.662-2.88-.743-2.379 1.02l1.05 2.318a8.953 8.953 0 002.246-1.313l-.917-2.025zM4.714 18.973a9.084 9.084 0 002.246 1.312l1.05-2.319c.34-2.004-1.277-2.408-2.38-1.018l-.916 2.025z" fill="#76B7E2"/><path class="p-F7B239" d="M3.54 1.977H2.327v4.291H3.54v-4.29zM28.6 1.977h-1.213v4.291h1.212v-4.29zM23.587 1.977h-1.213v4.291h1.213v-4.29zM8.551 1.977H7.34v4.291H8.55v-4.29zM13.564 1.977h-1.212v4.291h1.212v-4.29zM18.575 1.977h-1.213v4.291h1.213v-4.29z" fill="#B9DFFC"/><path class="p-E09B2D" d="M3.54 1.977H2.327V3.8H3.54V1.977zM8.551 1.977H7.34V3.8H8.55V1.977zM13.564 1.977h-1.212V3.8h1.212V1.977zM18.575 1.977h-1.213V3.8h1.213V1.977zM23.587 1.977h-1.213V3.8h1.213V1.977zM28.6 1.977h-1.213V3.8h1.212V1.977z" fill="#A1D1FD"/><path class="p-2BA5F7" d="M5.63 16.948a9.007 9.007 0 01-4.313-7.692V6.87c0-.759.616-1.374 1.375-1.374H28.236c.759 0 1.374.615 1.374 1.374v2.385a9.005 9.005 0 01-4.313 7.691 9.006 9.006 0 01-4.7 1.322H10.33a9.003 9.003 0 01-4.7-1.321z" fill="#5FBEFF"/><path class="p-2197D8" d="M12.973 16.948A9.007 9.007 0 018.66 9.256v-3.76H2.692c-.76 0-1.375.616-1.375 1.375v2.385a9.007 9.007 0 009.013 9.013h6.506c-.802 0-.743-.105-1.484-.302a8.922 8.922 0 01-2.379-1.019z" fill="#4D98CB"/><path class="p-F95428" d="M18.283 9.956c.713.713.713 1.87 0 2.583l-2.82 2.82-2.82-2.82a1.82 1.82 0 01-.535-1.291 1.827 1.827 0 013.117-1.292l.238.237.237-.237a1.82 1.82 0 011.29-.535c.469 0 .936.178 1.293.535z" fill="#4D98CB"/><path class="p-F7B239" d="M29.128 0a1.375 1.375 0 010 2.748H1.799a1.374 1.374 0 110-2.748h27.329z" fill="#B9DFFC"/><path class="p-E09B2D" d="M7.126 1.374c0-.38.154-.722.403-.971C7.778.153 8.12 0 8.5 0H1.799c-.38 0-.723.154-.972.403A1.374 1.374 0 001.8 2.749h6.702c-.76 0-1.375-.616-1.375-1.375z" fill="#A1D1FD"/></svg>
